assets/img/braze_icons/face-content.svg

<svg fill="none" height="24" viewBox="0 0 24 24" width="24" xmlns="http://www.w3.org/2000/svg"><path clip-rule="evenodd" d="m12 1c-6.07513 0-11 4.92487-11 11 0 6.0751 4.92487 11 11 11 6.0751 0 11-4.9249 11-11 0-6.07513-4.9249-11-11-11zm-1.2246 8.87152c.3488-.42823.2843-1.05811-.1439-1.40688-.4282-.34876-1.05809-.28434-1.40686.14389-.22985.28222-.49747.39149-.72462.39149-.21713 0-.47879-.10096-.73631-.40559-.35655-.42177-.98751-.47464-1.40928-.11809s-.47464.9875-.11809 1.40927c.56248.66539 1.35082 1.11439 2.26368 1.11439.90285 0 1.71528-.4407 2.27538-1.12848zm6.8561-1.40688c.4282.34877.4927.97865.1439 1.40688-.5601.68778-1.3725 1.12848-2.2754 1.12848-.9128 0-1.7012-.449-2.2637-1.11439-.3565-.42177-.3036-1.05272.1181-1.40927.4218-.35655 1.0528-.30368 1.4093.11809.2575.30463.5192.40559.7363.40559.2272 0 .4948-.10927.7246-.39149.3488-.42823.9787-.49265 1.4069-.14389zm-8.83462 4.93126c-.33218-.4383-.95642-.5262-1.39686-.1959-.44183.3314-.53137.9582-.2 1.4.03371.0436.06795.0866.10336.1288.05865.0699.14164.1646.24809.2756.21208.2213.52198.5128.92288.8044.79794.5803 2.00015 1.1912 3.52565 1.1912 1.5256 0 2.7278-.6109 3.5257-1.1912.4009-.2916.7108-.5831.9229-.8044.1064-.111.1894-.2057.2481-.2756l.1033-.1288c.3314-.4418.2419-1.0686-.2-1.4-.4404-.3303-1.0647-.2424-1.3968.1959l-.0047.0059c-.0059.0075-.0172.0216-.0338.0413-.0331.0395-.0869.1011-.1601.1775-.1473.1537-.3686.3622-.6553.5707-.577.4197-1.3748.8087-2.3493.8087-.9744 0-1.7722-.389-2.34931-.8087-.2866-.2085-.50794-.417-.65524-.5707-.07324-.0764-.12697-.138-.16012-.1775-.01654-.0197-.02785-.0338-.03381-.0413z" fill="#801ed7" fill-rule="evenodd"/></svg>

<svg width="24" height="24" viewBox="0 0 24 24" fill="none" xmlns="http://www.w3.org/2000/svg">
<path fill-rule="evenodd" clip-rule="evenodd" d="M12 1C5.92487 1 1 5.92487 1 12C1 18.0751 5.92487 23 12 23C18.0751 23 23 18.0751 23 12C23 5.92487 18.0751 1 12 1ZM10.7754 9.87152C11.1242 9.44329 11.0597 8.81341 10.6315 8.46464C10.2033 8.11588 9.57341 8.1803 9.22464 8.60853C8.99479 8.89075 8.72717 9.00002 8.50002 9.00002C8.28289 9.00002 8.02123 8.89906 7.76371 8.59443C7.40716 8.17266 6.7762 8.11979 6.35443 8.47634C5.93266 8.83289 5.87979 9.46384 6.23634 9.88561C6.79882 10.551 7.58716 11 8.50002 11C9.40287 11 10.2153 10.5593 10.7754 9.87152ZM17.6315 8.46464C18.0597 8.81341 18.1242 9.44329 17.7754 9.87152C17.2153 10.5593 16.4029 11 15.5 11C14.5872 11 13.7988 10.551 13.2363 9.88561C12.8798 9.46384 12.9327 8.83289 13.3544 8.47634C13.7762 8.11979 14.4072 8.17266 14.7637 8.59443C15.0212 8.89906 15.2829 9.00002 15.5 9.00002C15.7272 9.00002 15.9948 8.89075 16.2246 8.60853C16.5734 8.1803 17.2033 8.11588 17.6315 8.46464ZM8.79688 13.3959C8.4647 12.9576 7.84046 12.8697 7.40002 13.2C6.95819 13.5314 6.86865 14.1582 7.20002 14.6C7.23373 14.6436 7.26797 14.6866 7.30338 14.7288C7.36203 14.7987 7.44502 14.8934 7.55147 15.0044C7.76355 15.2257 8.07345 15.5172 8.47435 15.8088C9.27229 16.3891 10.4745 17 12 17C13.5256 17 14.7278 16.3891 15.5257 15.8088C15.9266 15.5172 16.2365 15.2257 16.4486 15.0044C16.555 14.8934 16.638 14.7987 16.6967 14.7288L16.8 14.6C17.1314 14.1582 17.0419 13.5314 16.6 13.2C16.1596 12.8697 15.5353 12.9576 15.2032 13.3959L15.1985 13.4018C15.1926 13.4093 15.1813 13.4234 15.1647 13.4431C15.1316 13.4826 15.0778 13.5442 15.0046 13.6206C14.8573 13.7743 14.636 13.9828 14.3493 14.1913C13.7723 14.611 12.9745 15 12 15C11.0256 15 10.2278 14.611 9.65069 14.1913C9.36409 13.9828 9.14275 13.7743 8.99545 13.6206C8.92221 13.5442 8.86848 13.4826 8.83533 13.4431C8.81879 13.4234 8.80748 13.4093 8.80152 13.4018L8.79688 13.3959Z" fill="#801ED7"/>
</svg>
